app/dist/common/images/pharmaron-beijing-co-ltd.svg

<svg height="18" viewBox="0 0 18 18" width="18" xmlns="http://www.w3.org/2000/svg"><path d="m0 0h18v18h-18z" fill="#f0f3fa"/><path d="m4 7.52h3v2.99h-3zm.58 3.48h2.53l3.16 3h-2.54zm-.58-4 3-3v3z" fill="#211d70"/><path d="m7.44 10.26 6.25-6.26h-6.25zm6.56-6.02-6.33 6.27h6.33z" fill="#d71920"/><path d="m7.09 14-3.09-3.12v3.12zm6.83-3h-6.43l3.1 3z" fill="#211d70"/></svg>

<!-- by TradingView --><svg width="18" height="18" viewBox="0 0 18 18" xmlns="http://www.w3.org/2000/svg"><path fill="#F0F3FA" d="M0 0h18v18H0z"/><path fill="#211D70" d="M4 7.52h3v2.99H4zM4.58 11h2.53l3.16 3H7.73l-3.15-3ZM4 7l3-3v3H4Z"/><path d="M7.44 10.26 13.69 4H7.44v6.26ZM14 4.24l-6.33 6.27H14V4.24Z" fill="#D71920"/><path d="M7.09 14 4 10.88V14h3.09ZM13.92 11H7.49l3.1 3 3.33-3Z" fill="#211D70"/></svg>
